svg/knight.svg

<?xml version="1.0" encoding="UTF-8" standalone="no"?>
<svg
   width="100"
   height="100"
   viewBox="-50 -92.5 398.041 510.02"
   version="1.1"
   id="svg22"
   sodipodi:docname="knight.svg"
   inkscape:version="1.2.2 (b0a8486541, 2022-12-01)"
   xmlns:inkscape="http://www.inkscape.org/namespaces/inkscape"
   xmlns:sodipodi="http://sodipodi.sourceforge.net/DTD/sodipodi-0.dtd"
   xmlns="http://www.w3.org/2000/svg"
   xmlns:svg="http://www.w3.org/2000/svg">
  <sodipodi:namedview
     id="namedview24"
     pagecolor="#505050"
     bordercolor="#ffffff"
     borderopacity="1"
     inkscape:showpageshadow="0"
     inkscape:pageopacity="0"
     inkscape:pagecheckerboard="1"
     inkscape:deskcolor="#505050"
     showgrid="false"
     inkscape:zoom="8.37"
     inkscape:cx="47.311828"
     inkscape:cy="50.059737"
     inkscape:window-width="1920"
     inkscape:window-height="1011"
     inkscape:window-x="0"
     inkscape:window-y="32"
     inkscape:window-maximized="1"
     inkscape:current-layer="svg22" />
  <defs
     id="defs5">
    <clipPath
       id="clip1">
      <path
         d="M 0 0 L 308.039062 0 L 308.039062 395.019531 L 0 395.019531 Z M 0 0 "
         id="path2" />
    </clipPath>
  </defs>
  <path
     style="fill:#ffffff;fill-opacity:1;fill-rule:nonzero;stroke:none"
     d="m 39.136719,343.30859 c 27.300781,8.16407 66.953121,16.75391 115.164061,16.26563 44.40625,-0.45313 81.16797,-8.45703 107.27344,-16.26563 -0.46094,-1.67578 -1.16797,-4.51953 -1.96094,-8.05468 -2.99609,-13.32032 -7.41406,-41.41797 1.96094,-71.07422 C 274.42969,223.51562 307.5,172.91797 285.09375,98.23047 261.35547,19.101562 150.6875,-4.574219 150.6875,-4.574219 l 1.80469,37.046875 -129.27344,93.710934 c -8.203125,5.94532 -10.195312,17.28516 -4.605469,25.73047 2.652344,4.00781 5.398438,8.53906 7.722657,13.19141 2.28125,4.55859 13.035156,21.08984 19.710937,25.39062 5.414063,3.49219 12.390625,3.27735 17.628906,-0.47265 7.957031,-5.69532 17.949219,-18.3711 45.960939,-15.66016 74.09375,12.64844 92.55469,-27.76562 92.55469,-27.76562 0,0 -11.7461,24.125 -59.52735,46.58593 -49.808591,19.10547 -82.339841,51.63282 -98.886716,106.6875 -7.894532,26.25782 -4.640625,43.4375 -4.640625,43.4375"
     id="path7" />
  <path
     style="fill:#ffbbff;fill-opacity:1;fill-rule:nonzero;stroke:none"
     d="M 27.363281,159.96484 183.45312,74.410156 c 0,0 18.51172,-9.253906 9.25391,-27.765625 C 188.57031,38.367188 156.94141,2.621094 156.94141,2.621094 V 39.644531 L 18.109375,141.45312 Z m 0,0"
     id="path9" />
  <path
     style="fill:#ffbbff;fill-opacity:1;fill-rule:nonzero;stroke:none"
     d="m 215.55859,153.79687 c -31.8789,53.47266 -70.10156,81.40235 -91.69921,106.08204 -18.03125,20.60937 -31.027349,69.43359 -30.000005,90 0.621094,12.36718 -51.070313,-9.94532 -51.070313,-9.94532 l 13.371094,-63.76172 27.765625,-52.44531 45.249999,-32.91015 z m 0,0"
     id="path11" />
  <g
     clip-path="url(#clip1)"
     clip-rule="nonzero"
     id="g15"
     transform="translate(0,-20)">
    <path
       style="fill:#000000;fill-opacity:1;fill-rule:nonzero;stroke:none"
       d="m 53.941406,351.47266 c 32.699219,8.75781 66.343754,13.03515 100.203124,12.67578 30.08203,-0.30469 60,-4.25782 89.13672,-11.75782 -3.52344,-18.96484 -5.11328,-45.34375 3.58594,-72.85937 2.73828,-8.66406 6.22265,-17.45703 9.91406,-26.76563 14.02344,-35.39062 29.91797,-75.5 13.53906,-130.10156 C 255.23047,72.367188 197.87109,46.65625 167.14844,36.246094 l 0.7539,15.472656 c 0.25391,5.207031 -2.13672,10.1875 -6.35547,13.242188 L 32.269531,158.67187 c -1.484375,1.07813 -1.835937,3.15625 -0.792969,4.72657 3.402344,5.13672 6.3125,10.12109 8.65625,14.8125 2.078126,4.15625 10.75,16.67578 14.296876,19.33593 0.08203,0.0312 0.195312,-0.0156 0.269531,-0.0664 0.796875,-0.57422 1.820312,-1.40625 3,-2.3711 8.144531,-6.64453 23.296875,-19.01171 53.421871,-16.10156 0.3711,0.0352 0.74219,0.0859 1.10938,0.14844 45.76172,7.8125 65.5625,-6.71094 72.6914,-14.64063 2.48829,-3.04687 3.4961,-4.87109 3.53125,-4.93359 -0.0937,0.17188 -0.13281,0.26172 -0.13281,0.26172 l 6.84375,-0.73828 c 9.44531,-1.02344 18.28516,4.8125 21.0586,13.89844 -0.0312,0.0664 -0.0859,0.18359 -0.16407,0.34375 -0.0859,0.17968 -0.21875,0.4414 -0.40234,0.78515 -0.53906,1.01953 -1.46484,2.63281 -2.85156,4.63281 -6.5625,9.59766 -24.01953,29.78125 -63.57813,48.37891 -0.33984,0.16016 -0.6875,0.30859 -1.03906,0.44141 -47.34375,18.15625 -74.988281,47.98828 -89.640625,96.72656 -3.429687,11.42187 -4.433594,20.80078 -4.605469,27.16016 m 96.406254,43.54687 c -39.15625,0 -78.031254,-5.69141 -115.62891,-16.92969 -5.523438,-1.65234 -9.667969,-6.24609 -10.738281,-11.91015 -0.40625,-2.13672 -3.703125,-21.72266 5.023437,-50.7461 14.648438,-48.72265 41.253906,-82.67968 82.824224,-105.10547 -1.38672,-0.20312 -2.78125,-0.42187 -4.19922,-0.66015 -17.093754,-1.53516 -23.871098,3.99609 -30.421879,9.34375 -1.453125,1.1875 -2.960937,2.41406 -4.550781,3.55469 -10.464844,7.49218 -24.195312,7.84375 -34.96875,0.89453 C 26.375,216.16797 14.011719,194.95312 12.539062,192.00391 10.75,188.42578 8.464844,184.53125 5.75,180.42969 -4.441406,165.03516 -0.746094,144.50391 14.164062,133.69531 L 136.67969,44.882812 135.27734,16.175781 c -0.23047,-4.785156 1.76953,-9.40625 5.41797,-12.503906 3.65235,-3.105469 8.53906,-4.332031 13.21875,-3.332031 4.88281,1.042968 119.89453,26.585937 145.95703,113.457036 19.45703,64.86718 -0.11718,114.26562 -14.41015,150.33203 -3.48047,8.78515 -6.76953,17.08203 -9.17578,24.70312 -8.02735,25.39063 -4.46485,50.39844 -1.6211,63.04297 0.96094,4.28906 1.60938,6.69922 1.78516,7.33594 2.22656,8.08984 -2.41406,16.47656 -10.45313,18.8789 -36.24218,10.83594 -73.76953,16.52735 -111.53906,16.91016 -1.36719,0.0117 -2.74219,0.0195 -4.10937,0.0195"
       id="path13" />
  </g>
  <path
     style="fill:#ffffff;fill-opacity:1;fill-rule:nonzero;stroke:#000000;stroke-width:30;stroke-linecap:round;stroke-linejoin:round;stroke-miterlimit:10;stroke-opacity:1"
     d="m 55.003906,292.07812 c 23.664063,7.10938 58.179684,14.61329 100.167974,14.0586 37.75781,-0.4961 69.04687,-7.34766 91.38281,-14.0586"
     id="path17" />
  <path
     style="fill:#000000;fill-opacity:1;fill-rule:nonzero;stroke:none"
     d="m 169.68359,93.57813 c 0,8.375 -6.78906,15.16406 -15.16406,15.16406 -8.375,0 -15.16406,-6.78906 -15.16406,-15.16406 0,-8.375 6.78906,-15.160161 15.16406,-15.160161 8.375,0 15.16406,6.785161 15.16406,15.160161"
     id="path19" />
</svg>

<?xml version="1.0" encoding="UTF-8"?>
<svg xmlns="http://www.w3.org/2000/svg" xmlns:xlink="http://www.w3.org/1999/xlink" width="100" height="100" viewBox="-50 -92.5 398.041 510.02" version="1.1">
<defs>
<clipPath id="clip1">
  <path d="M 0 0 L 308.039062 0 L 308.039062 395.019531 L 0 395.019531 Z M 0 0 "/>
</clipPath>
</defs>
<g id="surface1" transform="translate(0 -20)">
<path style=" stroke:none;fill-rule:nonzero;fill:rgb(80.000305%,80.000305%,80.000305%);fill-opacity:1;" d="M 39.136719 363.308594 C 66.4375 371.472656 106.089844 380.0625 154.300781 379.574219 C 198.707031 379.121094 235.46875 371.117188 261.574219 363.308594 C 261.113281 361.632812 260.40625 358.789062 259.613281 355.253906 C 256.617188 341.933594 252.199219 313.835938 261.574219 284.179688 C 274.429688 243.515625 307.5 192.917969 285.09375 118.230469 C 261.355469 39.101562 150.6875 15.425781 150.6875 15.425781 L 152.492188 52.472656 L 23.21875 146.183594 C 15.015625 152.128906 13.023438 163.46875 18.613281 171.914062 C 21.265625 175.921875 24.011719 180.453125 26.335938 185.105469 C 28.617188 189.664062 39.371094 206.195312 46.046875 210.496094 C 51.460938 213.988281 58.4375 213.773438 63.675781 210.023438 C 71.632812 204.328125 81.625 191.652344 109.636719 194.363281 C 183.730469 207.011719 202.191406 166.597656 202.191406 166.597656 C 202.191406 166.597656 190.445312 190.722656 142.664062 213.183594 C 92.855469 232.289062 60.324219 264.816406 43.777344 319.871094 C 35.882812 346.128906 39.136719 363.308594 39.136719 363.308594 "/>
<path style=" stroke:none;fill-rule:nonzero;fill:rgb(100%,100%,100%);fill-opacity:1;" d="M 27.363281 179.964844 L 183.453125 94.410156 C 183.453125 94.410156 201.964844 85.15625 192.707031 66.644531 C 188.570312 58.367188 156.941406 22.621094 156.941406 22.621094 L 156.941406 59.644531 L 18.109375 161.453125 Z M 27.363281 179.964844 "/>
<path style=" stroke:none;fill-rule:nonzero;fill:rgb(100%,100%,100%);fill-opacity:1;" d="M 215.558594 173.796875 C 183.679688 227.269531 145.457031 255.199219 123.859375 279.878906 C 105.828125 300.488281 92.832031 349.3125 93.859375 369.878906 C 94.480469 382.246094 42.789062 359.933594 42.789062 359.933594 L 56.160156 296.171875 L 83.925781 243.726562 L 129.175781 210.816406 Z M 215.558594 173.796875 "/>
<g clip-path="url(#clip1)" clip-rule="nonzero">
<path style=" stroke:none;fill-rule:nonzero;fill:rgb(0%,0%,0%);fill-opacity:1;" d="M 53.941406 351.472656 C 86.640625 360.230469 120.285156 364.507812 154.144531 364.148438 C 184.226562 363.84375 214.144531 359.890625 243.28125 352.390625 C 239.757812 333.425781 238.167969 307.046875 246.867188 279.53125 C 249.605469 270.867188 253.089844 262.074219 256.78125 252.765625 C 270.804688 217.375 286.699219 177.265625 270.320312 122.664062 C 255.230469 72.367188 197.871094 46.65625 167.148438 36.246094 L 167.902344 51.71875 C 168.15625 56.925781 165.765625 61.90625 161.546875 64.960938 L 32.269531 158.671875 C 30.785156 159.75 30.433594 161.828125 31.476562 163.398438 C 34.878906 168.535156 37.789062 173.519531 40.132812 178.210938 C 42.210938 182.367188 50.882812 194.886719 54.429688 197.546875 C 54.511719 197.578125 54.625 197.53125 54.699219 197.480469 C 55.496094 196.90625 56.519531 196.074219 57.699219 195.109375 C 65.84375 188.464844 80.996094 176.097656 111.121094 179.007812 C 111.492188 179.042969 111.863281 179.09375 112.230469 179.15625 C 157.992188 186.96875 177.792969 172.445312 184.921875 164.515625 C 187.410156 161.46875 188.417969 159.644531 188.453125 159.582031 C 188.359375 159.753906 188.320312 159.84375 188.320312 159.84375 L 195.164062 159.105469 C 204.609375 158.082031 213.449219 163.917969 216.222656 173.003906 C 216.191406 173.070312 216.136719 173.1875 216.058594 173.347656 C 215.972656 173.527344 215.839844 173.789062 215.65625 174.132812 C 215.117188 175.152344 214.191406 176.765625 212.804688 178.765625 C 206.242188 188.363281 188.785156 208.546875 149.226562 227.144531 C 148.886719 227.304688 148.539062 227.453125 148.1875 227.585938 C 100.84375 245.742188 73.199219 275.574219 58.546875 324.3125 C 55.117188 335.734375 54.113281 345.113281 53.941406 351.472656 M 150.347656 395.019531 C 111.191406 395.019531 72.316406 389.328125 34.71875 378.089844 C 29.195312 376.4375 25.050781 371.84375 23.980469 366.179688 C 23.574219 364.042969 20.277344 344.457031 29.003906 315.433594 C 43.652344 266.710938 70.257812 232.753906 111.828125 210.328125 C 110.441406 210.125 109.046875 209.90625 107.628906 209.667969 C 90.535156 208.132812 83.757812 213.664062 77.207031 219.011719 C 75.753906 220.199219 74.246094 221.425781 72.65625 222.566406 C 62.191406 230.058594 48.460938 230.410156 37.6875 223.460938 C 26.375 216.167969 14.011719 194.953125 12.539062 192.003906 C 10.75 188.425781 8.464844 184.53125 5.75 180.429688 C -4.441406 165.035156 -0.746094 144.503906 14.164062 133.695312 L 136.679688 44.882812 L 135.277344 16.175781 C 135.046875 11.390625 137.046875 6.769531 140.695312 3.671875 C 144.347656 0.566406 149.234375 -0.660156 153.914062 0.339844 C 158.796875 1.382812 273.808594 26.925781 299.871094 113.796875 C 319.328125 178.664062 299.753906 228.0625 285.460938 264.128906 C 281.980469 272.914062 278.691406 281.210938 276.285156 288.832031 C 268.257812 314.222656 271.820312 339.230469 274.664062 351.875 C 275.625 356.164062 276.273438 358.574219 276.449219 359.210938 C 278.675781 367.300781 274.035156 375.6875 265.996094 378.089844 C 229.753906 388.925781 192.226562 394.617188 154.457031 395 C 153.089844 395.011719 151.714844 395.019531 150.347656 395.019531 "/>
</g>
<path style="fill-rule:nonzero;fill:rgb(100%,100%,100%);fill-opacity:1;stroke-width:30;stroke-linecap:round;stroke-linejoin:round;stroke:rgb(0%,0%,0%);stroke-opacity:1;stroke-miterlimit:10;" d="M -0.00119375 0.001475 C 23.662869 -7.1079 58.178494 -14.611806 100.166775 -14.057119 C 137.924588 -13.561025 169.21365 -6.709463 191.549588 0.001475 " transform="matrix(1,0,0,-1,55.0051,312.0796)"/>
<path style=" stroke:none;fill-rule:nonzero;fill:rgb(0%,0%,0%);fill-opacity:1;" d="M 169.683594 113.578125 C 169.683594 121.953125 162.894531 128.742188 154.519531 128.742188 C 146.144531 128.742188 139.355469 121.953125 139.355469 113.578125 C 139.355469 105.203125 146.144531 98.417969 154.519531 98.417969 C 162.894531 98.417969 169.683594 105.203125 169.683594 113.578125 "/>
</g>
</svg>
